dist/svgs/qrcode.svg

<svg xmlns="http://www.w3.org/2000/svg" viewBox="0 0 512 512"><path d="M366 501v-49h49v49h-49zm84 0v-49h49v49h-49zm2-181v-41h47v130H364v-41h-45v133h-42V279h133v41h42zm-352 93v-49h50v49h-50zm-87 88V279h221v222H13zm47-177v129h130V324H60zM412 98v50h-49V98h49zM277 10h222v222H277V10zm174 177V58H322v129h129zm-351-39V99h49v49h-49zm-87 84V10h221v222H13zM60 59v128h130V59H60z"/></svg>

<?xml version="1.0" encoding="UTF-8" standalone="no"?><svg   xmlns:svg="http://www.w3.org/2000/svg"   xmlns="http://www.w3.org/2000/svg"   version="1.1"   width="512"   height="512"   viewBox="0 0 512 512">  <path     d="M366 501V452H415V501H366zM450 501V452H499V501H450zM452 320V279H499V409H364V368H319V501H277V279H410V320H452zM100 413V364H150V413H100zM13 501V279H234V501H13zM60 324V453H190V324H60zM412 98V148H363V98H412zM277 10H499V232H277V10zM451 187V58H322V187H451zM100 148V99H149V148H100zM13 232V10H234V232H208H13zM60 59V187H190V59H60z"     id="qrcode" /></svg>
